usr/share/icons/biglinux-icons-material/scalable/apps/applications-games.svg

<svg width="24" height="24" viewBox="0 0 24 24" fill="none" xmlns="http://www.w3.org/2000/svg">
<path fill-rule="evenodd" clip-rule="evenodd" d="M9.59603 1.11364C9.71587 1.11491 9.83042 1.09965 9.93968 1.06783C11.3755 0.973753 12.8111 0.977571 14.2467 1.07917C15.5484 1.18057 16.8085 1.463 18.0269 1.92642C20.0525 2.76037 21.4386 4.20682 22.185 6.26578C22.6119 7.50542 22.8639 8.78015 22.9411 10.0899C23.0478 11.7346 23.0096 13.3757 22.8265 15.0132C22.6895 16.1641 22.3916 17.2709 21.933 18.3336C21.0824 20.1761 19.704 21.447 17.7978 22.1463C16.2531 22.6682 14.6647 22.943 13.0325 22.9706C11.1966 23.0662 9.37912 22.9288 7.57996 22.5586C4.26837 21.8209 2.22557 19.8019 1.45156 16.5018C1.12307 15.0162 0.974177 13.5125 1.00481 11.9907C0.968144 10.3725 1.13996 8.77715 1.52029 7.20476C2.33168 4.11913 4.29047 2.20706 7.39667 1.46857C8.12046 1.29161 8.85358 1.17332 9.59603 1.11364Z" fill="url(#paint0_radial_0_1)"/>
<path d="M21.1705 12.8691L12.0138 17.4588L2.82948 12.8306L12.0138 8.27892L21.1705 12.8691Z" fill="#2B91C9"/>
<path d="M21.1705 14.2403L12.0138 18.8873L2.82948 14.2022V12.8306L12.0138 17.4588L21.1705 12.8691V14.2403Z" fill="#02679A"/>
<path d="M12 21.4205L2.82948 16.8496V14.2022L12.0138 18.8873L21.1705 14.2403V16.8303L12 21.4205Z" fill="#37474F"/>
<path d="M12 14.9068C14.2145 14.9068 16.0096 13.95 16.0096 12.7698C16.0096 11.5896 14.2145 10.6328 12 10.6328C9.78554 10.6328 7.99036 11.5896 7.99036 12.7698C7.99036 13.95 9.78554 14.9068 12 14.9068Z" fill="#2A2C2B"/>
<path d="M12.6596 7.52047H11.3404V12.8691H11.3443C11.3799 13.0613 11.6566 13.211 11.9926 13.211C12.3286 13.211 12.6048 13.0628 12.6404 12.8691H12.6596L12.6596 7.52047Z" fill="#AFBEC3"/>
<path d="M6.04212 13.6379C6.78791 13.6379 7.3925 13.3462 7.3925 12.9862C7.3925 12.6263 6.78791 12.3345 6.04212 12.3345C5.29633 12.3345 4.69174 12.6263 4.69174 12.9862C4.69174 13.3462 5.29633 13.6379 6.04212 13.6379Z" fill="#B11F24"/>
<path d="M7.3925 12.2594H4.69174V12.9867H7.3925V12.2594Z" fill="#B11F24"/>
<path d="M6.04212 12.9259C6.78791 12.9259 7.3925 12.6342 7.3925 12.2742C7.3925 11.9143 6.78791 11.6225 6.04212 11.6225C5.29633 11.6225 4.69174 11.9143 4.69174 12.2742C4.69174 12.6342 5.29633 12.9259 6.04212 12.9259Z" fill="#E81E28"/>
<path d="M12 8.59366C13.6608 8.59366 15.0071 7.24734 15.0071 5.58656C15.0071 3.92578 13.6608 2.57946 12 2.57946C10.3392 2.57946 8.9929 3.92578 8.9929 5.58656C8.9929 7.24734 10.3392 8.59366 12 8.59366Z" fill="url(#paint1_linear_0_1)"/>
<defs>
<radialGradient id="paint0_radial_0_1" cx="0" cy="0" r="1" gradientUnits="userSpaceOnUse" gradientTransform="translate(12 1.00005) rotate(90) scale(22 22)">
<stop stop-color="#FEFEFE"/>
<stop offset="1" stop-color="#B0B0B0"/>
</radialGradient>
<linearGradient id="paint1_linear_0_1" x1="8.9924" y1="5.58656" x2="15.0071" y2="5.58656" gradientUnits="userSpaceOnUse">
<stop stop-color="#2E87C8"/>
<stop offset="1" stop-color="#13BCCD"/>
</linearGradient>
</defs>
</svg>

<svg xmlns="http://www.w3.org/2000/svg" width="24" height="24" fill="none"><path fill="url(#a)" fill-rule="evenodd" d="M9.596 1.114c.12 0 .234-.014.344-.046a31.637 31.637 0 0 1 4.307.011c1.301.102 2.561.384 3.78.847 2.025.834 3.412 2.28 4.158 4.34.427 1.24.679 2.514.756 3.824a27.94 27.94 0 0 1-.114 4.923 11.881 11.881 0 0 1-.894 3.32c-.85 1.843-2.229 3.114-4.135 3.813a15.624 15.624 0 0 1-4.765.825 21.418 21.418 0 0 1-5.453-.412c-3.312-.738-5.354-2.757-6.128-6.057a19.045 19.045 0 0 1-.447-4.511 18.49 18.49 0 0 1 .515-4.786c.812-3.086 2.77-4.998 5.877-5.736a13.953 13.953 0 0 1 2.199-.355Z" clip-rule="evenodd"/><path fill="#2B91C9" d="m21.17 12.87-9.156 4.589-9.185-4.628 9.185-4.552 9.157 4.59Z"/><path fill="#02679A" d="m21.17 14.24-9.156 4.647-9.185-4.685v-1.371l9.185 4.628 9.157-4.59v1.371Z"/><path fill="#37474F" d="m12 21.42-9.17-4.57v-2.648l9.184 4.685 9.157-4.647v2.59L12 21.42Z"/><path fill="#2A2C2B" d="M12 14.907c2.214 0 4.01-.957 4.01-2.137 0-1.18-1.796-2.137-4.01-2.137-2.214 0-4.01.957-4.01 2.137 0 1.18 1.796 2.137 4.01 2.137Z"/><path fill="#AFBEC3" d="M12.66 7.52h-1.32v5.35h.004c.036.191.313.341.649.341s.612-.148.647-.342h.02V7.52Z"/><path fill="#B11F24" d="M6.042 13.638c.746 0 1.35-.292 1.35-.652 0-.36-.604-.652-1.35-.652-.746 0-1.35.292-1.35.652 0 .36.604.652 1.35.652Z"/><path fill="#B11F24" d="M7.393 12.26H4.691v.727h2.7v-.728Z"/><path fill="#E81E28" d="M6.042 12.926c.746 0 1.35-.292 1.35-.652 0-.36-.604-.651-1.35-.651-.746 0-1.35.291-1.35.651 0 .36.604.652 1.35.652Z"/><path fill="url(#b)" d="M12 8.594a3.007 3.007 0 1 0 0-6.015 3.007 3.007 0 0 0 0 6.015Z"/><defs><radialGradient id="a" cx="0" cy="0" r="1" gradientTransform="matrix(0 22 -22 0 12 1)" gradientUnits="userSpaceOnUse"><stop stop-color="#FEFEFE"/><stop offset="1" stop-color="#B0B0B0"/></radialGradient><linearGradient id="b" x1="8.992" x2="15.007" y1="5.587" y2="5.587" gradientUnits="userSpaceOnUse"><stop stop-color="#2E87C8"/><stop offset="1" stop-color="#13BCCD"/></linearGradient></defs></svg>
